svgs/sharp-light/square-user.svg

<svg xmlns="http://www.w3.org/2000/svg" viewBox="0 0 448 512"><!--! Font Awesome Pro 6.6.0 by @fontawesome - https://fontawesome.com License - https://fontawesome.com/license (Commercial License) Copyright 2024 Fonticons, Inc. --><path d="M416 64l0 384-37.3 0L336 320l-224 0L69.3 448 32 448 32 64l384 0zM344.9 448l-241.9 0 32-96 177.9 0 32 96zM32 32L0 32 0 64 0 448l0 32 32 0 384 0 32 0 0-32 0-384 0-32-32 0L32 32zM224 256a48 48 0 1 1 0-96 48 48 0 1 1 0 96zm-80-48a80 80 0 1 0 160 0 80 80 0 1 0 -160 0z"/></svg>

<svg xmlns="http://www.w3.org/2000/svg" viewBox="0 0 448 512"><!--! Font Awesome Pro 6.4.0 by @fontawesome - https://fontawesome.com License - https://fontawesome.com/license (Commercial License) Copyright 2023 Fonticons, Inc. --><path d="M416 64V448H378.7L336 320H112L69.3 448H32V64H416zM344.9 448H103.1l32-96H312.9l32 96zM32 32H0V64 448v32H32 416h32V448 64 32H416 32zM224 256a48 48 0 1 1 0-96 48 48 0 1 1 0 96zm-80-48a80 80 0 1 0 160 0 80 80 0 1 0 -160 0z"/></svg>
